src/assets/icons/icon-hide.svg

<?xml version="1.0" encoding="UTF-8"?>
<svg width="16px" height="16px" viewBox="0 0 16 16" version="1.1" xmlns="http://www.w3.org/2000/svg" xmlns:xlink="http://www.w3.org/1999/xlink">
    <!-- Generator: Sketch 50.2 (55047) - http://www.bohemiancoding.com/sketch -->
    <title>Icons/Drag Copy 4</title>
    <desc>Created with Sketch.</desc>
    <defs></defs>
    <g id="Half-Earth-map" stroke="none" stroke-width="1" fill="none" fill-rule="evenodd">
        <g id="guidelines" transform="translate(-203.000000, -2815.000000)">
            <g id="Icons/Hidden" transform="translate(203.000000, 2815.000000)">
                <rect id="Rectangle-2" fill-rule="nonzero" x="0" y="0" width="16" height="16"></rect>
                <path d="M5.65841535,6.71907552 L4.19992963,5.2605898 C3.27086875,6.0403866 2.48069708,6.96704057 1.86229057,8.00246132 C1.92676505,8.10925576 2.00407854,8.23246123 2.09398383,8.36918333 C2.45585616,8.91949522 2.88348873,9.47030915 3.37206171,9.9821467 C4.73454198,11.4095047 6.28564022,12.25 7.98795841,12.2500967 C8.8847088,12.2356971 9.76029323,12.0128072 10.5447926,11.6054528 L9.26762188,10.328282 C8.67841229,10.659207 7.97335437,10.7604468 7.29752764,10.5909348 C6.35640891,10.3548818 5.61889417,9.63053815 5.37679273,8.69947253 C5.19967435,8.01831656 5.30888279,7.30774641 5.65841535,6.71907552 Z M6.80792254,7.86858272 C6.78333841,8.017192 6.78934379,8.17133423 6.82851724,8.32198615 C6.93190342,8.71958526 7.25075041,9.03273807 7.6624561,9.13600278 C7.80840276,9.17260936 7.95736834,9.18065501 8.10175385,9.16241402 L6.80792254,7.86858272 Z M9.75454912,8.69388895 C9.79342176,8.71892395 9.8305254,8.74792856 9.86529633,8.78091759 C9.91003814,8.82336653 9.94839487,8.87001925 9.98033491,8.91967474 L12.0901352,11.029475 C12.2014474,11.079897 12.3019837,11.1582909 12.3803918,11.2630249 C12.4135395,11.3073021 12.4410561,11.354048 12.4630651,11.4024049 L15.5303301,14.4696699 C15.8232233,14.7625631 15.8232233,15.2374369 15.5303301,15.5303301 C15.2374369,15.8232233 14.7625631,15.8232233 14.4696699,15.5303301 L11.6458812,12.7065414 C10.5549875,13.3667622 9.29875444,13.7292269 8,13.75 C5.8166325,13.75 3.90750348,12.7154982 2.2870292,11.0178612 C1.73156809,10.4359504 1.24939953,9.81489121 0.840675266,9.19332995 C0.593341962,8.81720156 0.423129699,8.52000601 0.33162788,8.34027058 C0.219288509,8.1196043 0.223105353,7.85771083 0.341827641,7.64041206 C1.0555111,6.33414899 2.00270854,5.16788527 3.13572041,4.19638057 L0.469669914,1.53033009 C0.176776695,1.23743687 0.176776695,0.762563133 0.469669914,0.469669914 C0.762563133,0.176776695 1.23743687,0.176776695 1.53033009,0.469669914 L9.75454912,8.69388895 Z M13.9060162,7.63083241 C13.5441438,7.08052051 13.1165113,6.52970659 12.6279383,6.01786904 C11.265458,4.590511 9.71435978,3.75001574 7.99826902,3.75001374 C7.60551811,3.74910728 7.21401143,3.79305184 6.83167316,3.8809489 C6.42798979,3.97375306 6.02550713,3.72173567 5.93270296,3.3180523 C5.8398988,2.91436893 6.09191619,2.51188627 6.49559956,2.4190821 C6.98932059,2.30557887 7.49474525,2.24884762 8,2.25001574 C10.1833675,2.25001574 12.0924965,3.28451752 13.7129708,4.98215457 C14.2684319,5.5640653 14.7506005,6.18512453 15.1593247,6.80668579 C15.406658,7.18281418 15.5768703,7.48000973 15.6683721,7.65974516 C15.7805165,7.88002843 15.7769187,8.14142366 15.658754,8.35853698 C15.2473282,9.11448245 14.7567429,9.82606524 14.1950059,10.4817211 C13.9255095,10.7962757 13.4520427,10.8328025 13.1374881,10.5633061 C12.8229336,10.2938097 12.7864067,9.82034288 13.0559032,9.50578833 C13.4599314,9.03420903 13.8219533,8.52984088 14.1381392,7.99826641 C14.0735786,7.8913077 13.9961213,7.76785845 13.9060162,7.63083241 Z" id="Shape" fill="#495A64" fill-rule="evenodd"></path>
            </g>
        </g>
    </g>
</svg>

<svg width="16" height="16" xmlns="http://www.w3.org/2000/svg"><g fill="none" fill-rule="evenodd"><path d="M0 0h16v16H0z"/><path d="M5.658 6.72L4.2 5.26c-.93.78-1.72 1.707-2.338 2.742a11.478 11.478 0 0 0 1.51 1.98c1.363 1.428 2.914 2.268 4.616 2.268a5.75 5.75 0 0 0 2.557-.645l-1.277-1.277a2.69 2.69 0 0 1-1.97.263 2.642 2.642 0 0 1-1.921-1.892 2.596 2.596 0 0 1 .281-1.98zm1.15 1.149c-.025.148-.019.302.02.453.104.398.423.71.834.814.146.037.295.045.44.026L6.808 7.87zm2.947.825a.754.754 0 0 1 .225.226l2.11 2.11a.747.747 0 0 1 .373.372l3.067 3.068a.75.75 0 0 1-1.06 1.06l-2.824-2.823A7.26 7.26 0 0 1 8 13.75c-2.183 0-4.092-1.035-5.713-2.732A12.963 12.963 0 0 1 .841 9.193a9.572 9.572 0 0 1-.51-.853.75.75 0 0 1 .01-.7 12.319 12.319 0 0 1 2.795-3.444L.47 1.53A.75.75 0 0 1 1.53.47l8.225 8.224zm4.151-1.063c-.362-.55-.79-1.101-1.278-1.613C11.265 4.59 9.714 3.75 7.998 3.75c-.392 0-.784.043-1.166.13a.75.75 0 0 1-.336-1.46c.493-.114.999-.171 1.504-.17 2.183 0 4.092 1.035 5.713 2.732a12.963 12.963 0 0 1 1.446 1.825c.248.376.418.673.51.853a.75.75 0 0 1-.01.699 12.303 12.303 0 0 1-1.464 2.123.75.75 0 1 1-1.14-.976c.405-.472.767-.976 1.083-1.508a11.32 11.32 0 0 0-.232-.367z" fill="#495A64"/></g></svg>
